X:7347
T:the Sow's tail to Geordie
O:england
M:2/4
L:1/8
K:D
A3B A2F2 | E3F G2E2 | A3B A2F2 | A3B d2e2 | \
f3e d2A2 | E3F G2E2 | DEFG A2E2 | F4 D4 :|
|:a3b a2f2 | e3f g2e2 | a3b a2f2 | d3e f2d2 |\
g2ag f2gf | e2fe dcBA | defg agfe | f4 d4 :|
|:d2B2 A3F | E3F G2E2 | d3B A2F2 | A3B d2e2 |\
fedc BAGF | E3F G2E2 | DEFG A2E2 | F4 D4 :|
|:a3f d2f2 | e3f agfe | a3f d2f2 | a3b a2f2 |\
g2bg f2af | gfed cdec | defg a2e2 | f4 d4 :|


